X:6
T:Dance the Polygon,(She?). ASH.06
T:Spa,The,aka. ASH.06
M:C
L:1/8
Q:1/4=120
S:Harrison & Wall MS,Ashover,Derbyshire,1762-75
R:.Country dance
O:England
A:Derbyshire
Z:vmp.Chris Partington, 2003
K:D
Dd/2c/2 dd fdf2 | af a/2g/2f/2e/2 d/2c/2d/2e/2 dd |\
Dd/2c/2 dd fdf2 |!
agfe d2d2 | [eg][eg][df][df] [eg][eg]f2 |\
Dd/2c/2 dd fdf2 | af a/2g/2f/2e/2 d2D2 |\
"^NB" G>ABB Bd d2 |!
Bd e/2d/2"^NB"=c/2B/2  A/2G/2A/2B/2 AA |\
G>ABB Bd d2 | dB e/2d/2=c/2B/2 B2A2 |\
A>B=cc BdgB |!
A>B=cc Bd/2e/2 d/2c/2B/2A/2 |\
G>ABB BdgB| dB d/2"^NB"=c/2B/2A/2 G2 |]
W:Bar 7 .. may be missing..Bar 9,+15..note "c" is sharp in ms..

